X:3086
L:1/8
M:3/4
K:G
"G" D3 B AG |"D7" Fc cD ED | D3 c BA |"G" GB BD ED | D2 B3 G |"D7" Fc cD ED | D3 c BA | 
"G" G2 z2 z2 ::[K:C]"C" G3 e dc |"G7" B2 f3 G | G2 f3 B |"C" ce eG AG | G3 e c2 |"G7" Bf fG AG | 
 G2 f3 B |"C" c2 z2 z2 |]

